X:59
T:King of Prussia's Tamborine. JJo.059
B:J.Johnson Choice Collection Vol 8 1758
Z:vmp.Simon Wilson 2013 www.village-music-project.org.uk
Z:Dance added by John Chambers 2017
M:2/4
L:1/8
%Q:1/4=100
K:A
|:\
B/c/d/B/ Aa | edcB |\
A/B/c/B/ Aa | edc2 :|\
|:\
BB2B- | BB2B/c/ |
dcBA | GFE2 |\
ee2e- | ee2f/g/ |\
adcB | A4 :|
%%begintext align
%% The 1st Cu. cast off one Cu. .|
%% and up again ..| 1st Man set
%% across and turn .| the 1st Wo.
%% do the same ..|
%%endtext
